X:1
T:O magnum mysterium
T:in Corcumcisione Domini
T:Tomás Luis de Victoria (c. 1548 - 1611)
%%score 1 2 3 4
L:1/8
M:4/4
K:C
V:1 treble nm="Soprano" snm="S."
V:2 treble nm="Alto" snm="A."
V:3 treble-8 nm="Tenor" snm="T."
V:4 bass nm="Bass" snm="B."
V:1
 B8 | E4 B4- | B2 B2 c2 c2 | B4 z2 e2 | c2 d2 e3 e | e2 B2 c2 B2- | BAG^F GABG | AG G^F/E/ F4- | %8
 F4 E4 | ^G8 | A4 ^G3 A | B2 c3 B A2- | A2 ^G2 A2 G^F | E2 ^F2 G4 | z2 e2 c2 d2 | e3 e e2 c2 | %16
 A2 B2 c3 c | c2 B3 A A2- | A2 ^G2 A4 | z8 | z2 c2 B3 G | A2 B2 c2 A2 | c3 c c2 c2 | B4 B4 | %24
 ^G2 B2 B3 B | B2 ^c2 d4 | c3 B/A/ B4 | c4 B4 | z8 | z2 E2 A4 | G2 E2 ^F2 ^G2 | A3 B c2 c2 | %32
 B4 z4 | z8 | z2 A2 d4 | c2 A2 B2 ^c2 | d3 c BA A2- | A2 ^G^F G2 G2 | A4 z4 | ^G6 G2 | ^G4 A4 | %41
 ^G3 A B2 c2- | cB B3 A A2 | B2 ^G4 G2 | A3 A A4 | z2 A3 BcA | B2 e2 d4 | c2 e2 d2 B2 | %48
 c3 B AG G^F/E/ | ^F2 F2 E2 B2- | B2 G4 c2- | cB A4 ^G2 |[M:3/4] A4 c2 | B4 ^G2 | A3 G AB | c2 B4 | %56
 c4 A2 | G4 E2 | ^F3 E FG | A4 ^G2 | A6 | z4 d2 | c3 B cA | B2 GA Bc | d4 d2 | c2 e4 |[M:4/4] e8 | %67
 z2 e2 edcB | A2 d3 cBA | ^G2 A4 G2 | A8- | A8- | A8- | A8 |] %74
V:2
 z8 | z4 E4- | E4 A,4 | E6 E2 | F2 F2 E4 | z2 E2 C2 D2 | E3 E E2 B,2 | C2 E4 ^DC | ^D4 E4 | E8 | %10
 E4 E3 ^F | G2 G,2 A,3 B, | C2 B,2 A,2 E2 | E2 D2 B,3 B, | B,2 C3 B, A,2- | A,2 ^G,2 A,2 A2 | %16
 E2 G2 G3 G | G4 E2 F2 | E4 E4- | E4 z4 | z2 A2 G3 E | ^F2 ^G2 A2 E2 | E3 E E2 ^F2 | G4 ^F4 | %24
 E2 G2 G3 G | G2 G2 A2 B2- | BA A4 ^G2 | A2 E2 G3 ^F/G/ | G2 G^F E2 B,2 | z4 z2 A,2 | E4 D2 B,2 | %31
 ^C2 D2 EDE^F | G3 ^F/G/ A2 GF | E4 z2 B,2 | E4 D2 B,2 | CDE^F G4 | A3 G FE F2 | E6 E2 | ^C4 z4 | %39
 E6 E2 | E4 E4 | E8- | E8 | E4 z2 E2- | E2 E2 F3 F | E2 A,B, CDE^F | G2 G2 G4 | E2 E2 ^F2 ^G2 | %48
 A3 G ^FE E2- | E2 ^D2 E2 G2- | G^FED E4 | C2 D2 E4 |[M:3/4] E4 A2 | G4 E2 | ^F3 E FG | A4 ^G2 | %56
 A4 E2 | E4 B,2 | D4 D2 | E2 E4 | E4 C2 | A,4 ^G,2 | A,4 A2 | G4 E2 | ^F3 E FG | A4 ^G2 | %66
[M:4/4] A4 z2 E2 | EDCB, A,2 A2- | AGFE D2 F2 | E4 z2 B,2 | C3 D E2 F2- | F2 E2 D3 E | F4 E4- | %73
 E8 |] %74
V:3
 z8 | z8 | z8 | z8 | z8 | z8 | z8 | z4 B4- | B4 E4 | B6 B2 | c2 c2 B4 | z2 e2 c2 d2 | e3 e e2 B2 | %13
 c2 B3 AG^F | G4 A4 | B4 c2 e2 | c2 d2 e3 e | e2 d2 c2 d2 | B4 A2 c2 | B3 G A2 B2 | c2 A2 e3 e | %21
 d2 B2 A2 c2 | c3 c c2 c2 | d2 e4 ^d2 | e2 E2 e3 e | e2 e2 d4 | f4 e4 | z2 A2 e4 | d2 B2 ^c2 d2 | %29
 edcB ABcA | B6 B2 | A4 z2 A2 | e4 d2 B2 | c2 B3 AG^F | G2 A4 ^G2 | A2 c2 d2 e2 | f3 e dc d2 | %37
 c2 BA B2 B2 | A4 z4 | B6 B2 | B4 c4 | B6 A2 | B4 c4 | B2 B4 B2 | ^c3 c d2 AB | cd e4 c2 | %46
 d2 c4 B2 | c2 c2 d2 e2 | A6 c2 | B8 | G8 | A4 B4 |[M:3/4] A4 A2 | e4 e2 | d4 e2 | A2 e4 | A4 c2 | %57
 B4 G2 | A3 G AB | c2 B4 | A4 E2 | ^F2 D4 | E4 c2 | B4 G2 | A4 A2 | A2 B4 |[M:4/4] A2 c2 BAG^F | %67
 E2 AB cdec | d3 e fedc | B2 c2 B2 e2 | edcB A2 c2 | d2 e2 f3 e | d6 ^cB | ^c8 |] %74
V:4
 z8 | z8 | z8 | z8 | z8 | z8 | z8 | z8 | z8 | E,8 | A,,4 E,4- | E,2 E,2 F,2 F,2 | E,4 z2 E,2 | %13
 C,2 D,2 E,3 E, | E,2 C,2 F,4 | E,4 A,,2 A,,2 | A,2 G,2 C,3 C, | C,2 G,2 A,2 D,2 | E,4 A,,2 A,2 | %19
 G,3 E, ^F,2 ^G,2 | A,4 z4 | z4 z2 A,,2 | A,3 A, A,2 A,2 | G,3 A, B,4 | E,4 z4 | z8 | z4 z2 E,2 | %27
 A,4 G,2 E,2 | ^F,2 G,2 A,2 G,F, | E,3 G, F,2 F,2 | E,4 z4 | z2 D,2 A,4 | G,2 E,2 ^F,2 G,2 | %33
 A,2 G,^F, E,3 D, | C,2 B,,A,, B,,2 B,,2 | A,,2 A,2 G,2 E,2 | D,8 | E,6 E,2 | A,,4 z4 | E,6 E,2 | %40
 E,4 A,,4 | E,3 ^F, ^G,2 A,2- | A,^G, G,2 A,4 | E,2 E,4 E,2 | A,3 A, D,4 | A,6 A,2 | G,2 C,2 G,4 | %47
 C,4 z4 | z8 | z4 E,4- | E,4 C,4 | F,4 E,4 |[M:3/4] A,,4 z2 | z6 | z6 | z6 | z4 A,,2 | E,4 E,2 | %58
 D,4 E,2 | A,,2 E,4 | A,,4 A,,2 | D,2 B,,4 | A,,4 A,,2 | E,4 E,2 | D,4 D,2 | F,2 E,4 | %66
[M:4/4] A,,2 A,2 G,^F,E,D, | C,B,,A,,G,, A,,4 | D,8 | E,8 | A,,2 A,2 A,G,F,E, | D,2 ^C,2 D,4- | %72
 D,4 A,,4- | A,,8 |] %74

